trunk/WorldWind/resources/milstd2525/icons/ems/ehfaee---------.svg

<?xml version="1.0" encoding="UTF-8" standalone="no"?>
<!--
Copyright (C) 2012 United States Government as represented by the Administrator of the
National Aeronautics and Space Administration.
All Rights Reserved.
-->

<!--
MIL-STD-2525 tactical symbol icon image. During icon composition this image is multiplied by the desired frame color 
(e.g. black), then drawn on top of the frame and fill.
-->

<svg
   xmlns:dc="http://purl.org/dc/elements/1.1/"
   xmlns:cc="http://creativecommons.org/ns#"
   xmlns:rdf="http://www.w3.org/1999/02/22-rdf-syntax-ns#"
   xmlns:svg="http://www.w3.org/2000/svg"
   xmlns="http://www.w3.org/2000/svg"
   xmlns:sodipodi="http://sodipodi.sourceforge.net/DTD/sodipodi-0.dtd"
   xmlns:inkscape="http://www.inkscape.org/namespaces/inkscape"
   height="400px"
   viewBox="0 0 400 400"
   width="400px"
   id="svg2"
   version="1.1"
   inkscape:version="0.48.2 r9819"
   sodipodi:docname="ehfaee---------.svg">
  <metadata
     id="metadata28">
    <rdf:RDF>
      <cc:Work
         rdf:about="">
        <dc:format>image/svg+xml</dc:format>
        <dc:type
           rdf:resource="http://purl.org/dc/dcmitype/StillImage" />
      </cc:Work>
    </rdf:RDF>
  </metadata>
  <defs
     id="defs26" />
  <sodipodi:namedview
     pagecolor="#ffffff"
     bordercolor="#666666"
     borderopacity="1"
     objecttolerance="10"
     gridtolerance="10"
     guidetolerance="10"
     inkscape:pageopacity="0"
     inkscape:pageshadow="2"
     inkscape:window-width="640"
     inkscape:window-height="480"
     id="namedview24"
     showgrid="false"
     inkscape:zoom="0.59"
     inkscape:cx="200"
     inkscape:cy="200"
     inkscape:window-x="0"
     inkscape:window-y="0"
     inkscape:window-maximized="0"
     inkscape:current-layer="svg2" />
  <g
     transform="matrix(100,0,0,100,74,74)"
     id="g4"
     style="stroke:#000000;stroke-width:0.06;stroke-miterlimit:4;stroke-opacity:1;stroke-dasharray:0.12, 0.06;stroke-dashoffset:0">
    <path
       inkscape:connector-curvature="0"
       d="m 1.2333,0.593323 0,0.005457 c 0,0.02548 0.01272,0.038204 0.0382,0.038204 0.01273,0 0.02729,-0.014563 0.02729,-0.027287 0,-0.018815 -0.00403,-0.021134 -0.00545,-0.038205 C 1.2811,0.568638 1.28079,0.566036 1.26605,0.566036 l -0.00546,0 c -0.01273,0 -0.02729,0.014563 -0.02729,0.027287 z"
       style="fill:#000000;stroke:#000000;stroke-width:0.06;stroke-miterlimit:4;stroke-opacity:1;stroke-dasharray:0.12, 0.06;stroke-dashoffset:0"
       id="path6" />
    <path
       inkscape:connector-curvature="0"
       d="m 1.29334,0.571492 c 0.00142,0.017071 0.00546,0.01939 0.00546,0.038205 0,0.012724 -0.01456,0.027287 -0.02729,0.027287 -0.02548,0 -0.03821,-0.012724 -0.03821,-0.038205 l 0,-0.005456 c 0,-0.012725 0.01457,-0.027288 0.02729,-0.027288 l 0.00546,0 c 0.01474,0 0.01505,0.002603 0.02729,0.005457 z m -0.09824,0.021831 0,0.016374 c 0,0.030704 0.03957,0.060031 0.06549,0.060031 0.03628,0 0.07641,-0.023913 0.07641,-0.060031 l 0,-0.027292 c 0,-0.026106 -0.03942,-0.049118 -0.07095,-0.049118 -0.03617,0 -0.07095,0.025433 -0.07095,0.060036 z"
       style="fill:#ffffff;stroke:#000000;stroke-width:0.06;stroke-miterlimit:4;stroke-opacity:1;stroke-dasharray:0.12, 0.06;stroke-dashoffset:0"
       id="path8" />
    <path
       inkscape:connector-curvature="0"
       d="m 1.22239,0.724307 c 0,0.013571 -0.01365,0.020524 -0.02183,0.032748 L 1.33867,0.755086 1.30971,0.735224 l 0,-0.043661 C 1.29264,0.69298 1.29032,0.69702 1.27151,0.69702 l -0.01092,0 c -0.01881,0 -0.02113,-0.00404 -0.0382,-0.005457 z"
       style="fill:#ffffff;stroke:#000000;stroke-width:0.06;stroke-miterlimit:4;stroke-opacity:1;stroke-dasharray:0.12, 0.06;stroke-dashoffset:0"
       id="path10" />
    <path
       inkscape:connector-curvature="0"
       d="m 0.93313,0.478709 0.054575,0 0,0.152819 c 0,0.019551 -0.057772,0.033862 -0.076406,0.038201 l 0,0.103697 0.125531,0 0,-0.382039 -0.1037,0 z"
       style="fill:#ffffff;stroke:#000000;stroke-width:0.06;stroke-miterlimit:4;stroke-opacity:1;stroke-dasharray:0.12, 0.06;stroke-dashoffset:0"
       id="path12" />
    <path
       inkscape:connector-curvature="0"
       d="m 1.50073,0.773425 0.1037,0 0,-0.092779 c 0,-0.018701 -0.0425,-0.031288 -0.06004,-0.032748 l 0,-0.16919 0.04366,0 0,-0.087322 -0.08732,0 z"
       style="fill:#ffffff;stroke:#000000;stroke-width:0.06;stroke-miterlimit:4;stroke-opacity:1;stroke-dasharray:0.12, 0.06;stroke-dashoffset:0"
       id="path14" />
    <path
       inkscape:connector-curvature="0"
       d="m 0.66024,1.05177 0,0.1037 1.21162,0 0,-0.1037 c 0,-0.02981 -0.181,-0.142161 -0.21285,-0.163732 C 1.59745,0.846349 1.472,0.795255 1.36975,0.795255 l -0.21285,0 c -0.09809,0 -0.220008,0.056047 -0.283717,0.092874 C 0.841293,0.906562 0.660242,1.02433 0.660242,1.05177 z"
       style="fill:#ffffff;stroke:#000000;stroke-width:0.06;stroke-miterlimit:4;stroke-opacity:1;stroke-dasharray:0.12, 0.06;stroke-dashoffset:0"
       id="path16" />
    <path
       inkscape:connector-curvature="0"
       d="m 0.66024,1.82677 c 0,0.04655 0.226366,0.19102 0.251059,0.19102 l 0.714961,0 c 0.0251,0 0.2456,-0.14705 0.2456,-0.19648 l 0,-0.08186 -1.211622,0 0,0.08732 z"
       style="fill:#ffffff;stroke:#000000;stroke-width:0.06;stroke-miterlimit:4;stroke-opacity:1;stroke-dasharray:0.12, 0.06;stroke-dashoffset:0"
       id="path18" />
    <polygon
       points="1.62626,2.13786 1.62626,2.05599 0.916756,2.05599 0.916756,2.13786 "
       style="fill:#ffffff;stroke:#000000;stroke-width:0.06;stroke-miterlimit:4;stroke-opacity:1;stroke-dasharray:0.12, 0.06;stroke-dashoffset:0"
       id="polygon20" />
    <path
       inkscape:connector-curvature="0"
       d="m 0.916756,2.05599 0.709504,0 0,0.08187 -0.709504,0 z M 0.66024,1.73944 l 1.21162,0 0,0.08187 c 0,0.04943 -0.2205,0.19648 -0.2456,0.19648 l -0.714959,0 c -0.024693,0 -0.251059,-0.14448 -0.251059,-0.19102 l 0,-0.08733 z m 0,-0.68767 c 0,-0.02744 0.181051,-0.145209 0.212941,-0.163642 C 0.93689,0.851301 1.0588,0.795254 1.1569,0.795254 l 0.21285,0 c 0.10225,0 0.2277,0.051095 0.28926,0.092784 0.03185,0.02157 0.21285,0.133922 0.21285,0.163732 l 0,0.1037 -1.211622,0 0,-0.1037 z M 1.22239,0.691561 c 0.01707,0.001417 0.01939,0.005457 0.0382,0.005457 l 0.01092,0 c 0.01881,0 0.02113,-0.00404 0.0382,-0.005457 l 0,0.043661 0.02896,0.019863 -0.13811,0.001968 C 1.20874,0.744829 1.22239,0.737876 1.22239,0.724305 z M 1.1951,0.593321 c 0,-0.034603 0.03477,-0.060036 0.07095,-0.060036 0.03153,0 0.07095,0.023012 0.07095,0.049119 l 0,0.027291 c 0,0.036118 -0.04013,0.060031 -0.07641,0.060031 -0.02592,0 -0.06549,-0.029326 -0.06549,-0.060031 z m 0.30563,-0.201937 0.08733,0 0,0.087323 -0.04367,0 0,0.169189 c 0.01755,0.00146 0.06004,0.014047 0.06004,0.032748 l 0,0.092779 -0.1037,0 z m -0.567599,0 0.103699,0 0,0.382039 -0.12553,0 0,-0.103697 C 0.929934,0.665387 0.987705,0.651076 0.987705,0.631525 l 0,-0.152819 -0.054575,0 z m 0.141899,0 0.3875,0 0,0.382039 C 1.42203,0.76399 1.34246,0.750817 1.34246,0.707931 l 0,-0.021831 c 0,-0.037681 0.02183,-0.052102 0.02183,-0.065492 l 0,-0.027287 c 0,-0.079973 -0.07443,-0.081319 -0.08186,-0.109154 l 0.10369,0 0,-0.038205 -0.24014,0 0,0.038205 0.1037,0 0,0.01637 C 1.20158,0.501611 1.17327,0.547954 1.17327,0.598777 l 0,0.016374 c 0,0.023897 0.02183,0.048571 0.02183,0.060035 l 0,0.032744 c 0,0.036107 -0.08354,0.056985 -0.12007,0.065492 z m -0.180103,0.120071 0.054575,0 0,0.09824 c 0,0.018976 -0.051587,0.031134 -0.070949,0.032744 l 0,0.169193 0.076409,0 C 0.939749,0.822203 0.88836,0.842912 0.863966,0.857077 0.832757,0.875199 0.808399,0.891231 0.780312,0.909868 0.757281,0.925152 0.627784,1.0284 0.62204,1.02994 l 0,0.79137 c 0,0.04742 0.07865,0.11041 0.112315,0.13328 0.023252,0.01579 0.144197,0.08116 0.144197,0.1014 l 0,0.12007 0.780458,0 0,-0.12007 c 0,-0.03944 0.25105,-0.11556 0.25105,-0.25105 l 0,-0.76409 C 1.91006,1.01815 1.78441,0.929762 1.75943,0.913144 1.7297,0.893373 1.70658,0.878475 1.67649,0.859644 1.6532,0.845062 1.5971,0.824239 1.5826,0.811633 l 0.06004,0 0,-0.169193 C 1.62533,0.638408 1.57714,0.629101 1.57714,0.609695 l 0,-0.09824 0.04912,0 0,-0.158276 -0.731334,0 z"
       style="fill:#000000;stroke:#000000;stroke-width:0.06;stroke-miterlimit:4;stroke-opacity:1;stroke-dasharray:0.12, 0.06;stroke-dashoffset:0"
       id="path22" />
  </g>
</svg>

<?xml version="1.0"?>
<!--
Copyright (C) 2012 United States Government as represented by the Administrator of the
National Aeronautics and Space Administration.
All Rights Reserved.
-->

<!DOCTYPE svg PUBLIC "-//W3C//DTD SVG 1.1//EN" "http://www.w3.org/Graphics/SVG/1.1/DTD/svg11.dtd" >
<!--
MIL-STD-2525 tactical symbol icon image. During icon composition this image is multiplied by the desired frame color 
(e.g. black), then drawn on top of the frame and fill.
-->
<svg xmlns:xlink="http://www.w3.org/1999/xlink" height="400px" viewBox="0 0 400 400" width="400px"><g transform="scale(100) translate(0.74 0.74)"><path d="M1.2333 0.593323 L1.2333 0.59878 C1.2333 0.62426 1.24602 0.636984 1.2715 0.636984     C1.28423 0.636984 1.29879 0.622421 1.29879 0.609697 C1.29879 0.590882 1.29476     0.588563 1.29334 0.571492 C1.2811 0.568638 1.28079 0.566036 1.26605 0.566036     L1.26059 0.566036 C1.24786 0.566036 1.2333 0.580599 1.2333 0.593323 z" style="fill:rgb(0,0,0)"/><path d="M1.29334 0.571492 C1.29476 0.588563 1.2988 0.590882 1.2988 0.609697 C1.2988 0.622421     1.28424 0.636984 1.27151 0.636984 C1.24603 0.636984 1.2333 0.62426 1.2333     0.598779 L1.2333 0.593323 C1.2333 0.580598 1.24787 0.566035 1.26059 0.566035     L1.26605 0.566035 C1.28079 0.566035 1.2811 0.568638 1.29334 0.571492 zM1.1951     0.593323 L1.1951 0.609697 C1.1951 0.640401 1.23467 0.669728 1.26059 0.669728     C1.29687 0.669728 1.337 0.645815 1.337 0.609697 L1.337 0.582405 C1.337     0.556299 1.29758 0.533287 1.26605 0.533287 C1.22988 0.533287 1.1951 0.55872     1.1951 0.593323 z" style="fill:rgb(255,255,255)"/><path d="M1.22239 0.724307 C1.22239 0.737878 1.20874 0.744831 1.20056 0.757055 L1.33867 0.755086     L1.30971 0.735224 L1.30971 0.691563 C1.29264 0.69298 1.29032 0.69702     1.27151 0.69702 L1.26059 0.69702 C1.24178 0.69702 1.23946 0.69298 1.22239 0.691563     z" style="fill:rgb(255,255,255)"/><path d="M0.93313 0.478709 L0.987705 0.478709 L0.987705 0.631528 C0.987705 0.651079 0.929933     0.66539 0.911299 0.669729 L0.911299 0.773426 L1.03683 0.773426 L1.03683 0.391387     L0.93313 0.391387 z" style="fill:rgb(255,255,255)"/><path d="M1.50073 0.773425 L1.60443 0.773425 L1.60443 0.680646 C1.60443 0.661945 1.56193 0.649358     1.54439 0.647898 L1.54439 0.478708 L1.58805 0.478708 L1.58805 0.391386     L1.50073 0.391386 z" style="fill:rgb(255,255,255)"/><path d="M0.66024 1.05177 L0.66024 1.15547 L1.87186 1.15547 L1.87186 1.05177 C1.87186 1.02196     1.69086 0.909609 1.65901 0.888038 C1.59745 0.846349 1.472 0.795255 1.36975     0.795255 L1.1569 0.795255 C1.05881 0.795255 0.936892 0.851302 0.873183 0.888129     C0.841293 0.906562 0.660242 1.02433 0.660242 1.05177 z" style="fill:rgb(255,255,255)"/><path d="M0.66024 1.82677 C0.66024 1.87332 0.886606 2.01779 0.911299 2.01779 L1.62626 2.01779     C1.65136 2.01779 1.87186 1.87074 1.87186 1.82131 L1.87186 1.73945 L0.660238     1.73945 L0.660238 1.82677 z" style="fill:rgb(255,255,255)"/><polygon points="0.916756,2.13786 1.62626,2.13786 1.62626,2.05599 0.916756,2.05599" style="fill:rgb(255,255,255)"/><path d="M0.916756 2.05599 L1.62626 2.05599 L1.62626 2.13786 L0.916756 2.13786 zM0.66024 1.73944     L1.87186 1.73944 L1.87186 1.82131 C1.87186 1.87074 1.65136 2.01779 1.62626     2.01779 L0.911301 2.01779 C0.886608 2.01779 0.660242 1.87331 0.660242     1.82677 L0.660242 1.73944 zM0.66024 1.05177 C0.66024 1.02433 0.841291 0.906561     0.873181 0.888128 C0.93689 0.851301 1.0588 0.795254 1.1569 0.795254 L1.36975     0.795254 C1.472 0.795254 1.59745 0.846349 1.65901 0.888038 C1.69086 0.909608     1.87186 1.02196 1.87186 1.05177 L1.87186 1.15547 L0.660238 1.15547 L0.660238     1.05177 zM1.22239 0.691561 C1.23946 0.692978 1.24178 0.697018 1.26059     0.697018 L1.27151 0.697018 C1.29032 0.697018 1.29264 0.692978 1.30971 0.691561     L1.30971 0.735222 L1.33867 0.755085 L1.20056 0.757053 C1.20874 0.744829 1.22239     0.737876 1.22239 0.724305 zM1.1951 0.593321 C1.1951 0.558718 1.22987     0.533285 1.26605 0.533285 C1.29758 0.533285 1.337 0.556297 1.337 0.582404 L1.337     0.609695 C1.337 0.645813 1.29687 0.669726 1.26059 0.669726 C1.23467 0.669726     1.1951 0.6404 1.1951 0.609695 zM1.50073 0.391384 L1.58806 0.391384 L1.58806     0.478707 L1.54439 0.478707 L1.54439 0.647896 C1.56194 0.649356 1.60443     0.661943 1.60443 0.680644 L1.60443 0.773423 L1.50073 0.773423 zM0.933131 0.391384     L1.03683 0.391384 L1.03683 0.773423 L0.9113 0.773423 L0.9113 0.669726     C0.929934 0.665387 0.987705 0.651076 0.987705 0.631525 L0.987705 0.478706 L0.93313     0.478706 zM1.07503 0.391384 L1.46253 0.391384 L1.46253 0.773423 C1.42203     0.76399 1.34246 0.750817 1.34246 0.707931 L1.34246 0.6861 C1.34246 0.648419     1.36429 0.633998 1.36429 0.620608 L1.36429 0.593321 C1.36429 0.513348 1.28986     0.512002 1.28243 0.484167 L1.38612 0.484167 L1.38612 0.445962 L1.14598     0.445962 L1.14598 0.484167 L1.24968 0.484167 L1.24968 0.500537 C1.20158 0.501611     1.17327 0.547954 1.17327 0.598777 L1.17327 0.615151 C1.17327 0.639048     1.1951 0.663722 1.1951 0.675186 L1.1951 0.70793 C1.1951 0.744037 1.11156 0.764915     1.07503 0.773422 zM0.894927 0.511455 L0.949502 0.511455 L0.949502 0.609695     C0.949502 0.628671 0.897915 0.640829 0.878553 0.642439 L0.878553 0.811632     L0.954962 0.811632 C0.939749 0.822203 0.88836 0.842912 0.863966 0.857077     C0.832757 0.875199 0.808399 0.891231 0.780312 0.909868 C0.757281 0.925152 0.627784     1.0284 0.62204 1.02994 L0.62204 1.82131 C0.62204 1.86873 0.70069 1.93172     0.734355 1.95459 C0.757607 1.97038 0.878552 2.03575 0.878552 2.05599 L0.878552     2.17606 L1.65901 2.17606 L1.65901 2.05599 C1.65901 2.01655 1.91006 1.94043     1.91006 1.80494 L1.91006 1.04085 C1.91006 1.01815 1.78441 0.929762 1.75943     0.913144 C1.7297 0.893373 1.70658 0.878475 1.67649 0.859644 C1.6532 0.845062     1.5971 0.824239 1.5826 0.811633 L1.64264 0.811633 L1.64264 0.64244 C1.62533     0.638408 1.57714 0.629101 1.57714 0.609695 L1.57714 0.511455 L1.62626     0.511455 L1.62626 0.353179 L0.894926 0.353179 z" style="fill:rgb(0,0,0)"/></g></svg>
